findly-builder/apps/searchassist/src/assets/images/logos/smart-icon.svg

<?xml version="1.0" encoding="UTF-8"?>
<svg width="30px" height="30px" viewBox="0 0 30 30" version="1.1" xmlns="http://www.w3.org/2000/svg" xmlns:xlink="http://www.w3.org/1999/xlink">
    <!-- Generator: Sketch 53.2 (72643) - https://sketchapp.com -->
    <title>smart-icon</title>
    <desc>Created with Sketch.</desc>
    <g id="smart-icon" stroke="none" stroke-width="1" fill="none" fill-rule="evenodd">
        <g id="SmartAssist_by-Kore.ai_Logo-Copy" transform="translate(2.000000, 2.000000)" fill-rule="nonzero">
            <g id="Group">
                <ellipse id="Oval-Copy-15" fill="#009DAB" cx="12.8462441" cy="13.0798122" rx="12.8462441" ry="13.0798122"></ellipse>
                <path d="M3.96377422,11.678406 L3.96377422,11.678406 C4.27551645,11.6777983 4.57466632,11.8007633 4.79510179,12.0201216 C5.01553726,12.2394799 5.13910606,12.5371679 5.1384954,12.8473868 L5.1384954,12.8473868 C5.1384954,13.4917362 4.61358204,14.0140845 3.9660686,14.0140845 L3.9660686,14.0140845 C3.32214206,14.0090685 2.80279958,13.4881864 2.80281931,12.8473868 L2.80281931,12.8473868 C2.80152831,12.2065798 3.31985001,11.6846748 3.96377422,11.678406 Z" id="Path" fill="#FFFFFF"></path>
                <path d="M21.7206894,11.678406 L21.7206894,11.678406 C22.030908,11.6777983 22.3285958,11.8007632 22.5479538,12.0201213 C22.7673119,12.2394794 22.8902768,12.5371671 22.8896691,12.8473857 L22.8896691,12.8473857 C22.8896691,13.4917344 22.3673213,14.0140823 21.7229726,14.0140823 L21.7229726,14.0140823 C21.41315,14.0146886 21.1158093,13.8920368 20.8965172,13.673173 C20.6772251,13.4543092 20.5539923,13.1572089 20.5539928,12.8473857 L20.5539928,12.8473857 C20.5533865,12.5375632 20.6760383,12.2402224 20.8949021,12.0209303 C21.1137659,11.8016382 21.4108662,11.6784054 21.7206894,11.678406 Z" id="Path" fill="#FFFFFF"></path>
                <path d="M8.64087832,9.80985915 L8.64087832,9.80985915 C9.28648861,9.80985915 9.80985915,10.2981797 9.80985915,10.9005536 L9.80985915,15.2590708 C9.80985915,15.8614447 9.28648861,16.3497653 8.64087832,16.3497653 L8.64087832,16.3497653 C8.33105486,16.3497658 8.03395421,16.2347858 7.81509021,16.0301794 C7.5962262,15.825573 7.47357433,15.5481449 7.47418064,15.2590708 L7.47418064,10.9005536 C7.47357433,10.6114795 7.5962262,10.3340514 7.81509021,10.129445 C8.03395421,9.92483866 8.33105486,9.8098586 8.64087832,9.80985915 L8.64087832,9.80985915 Z" id="Path" fill="#FFFFFF"></path>
                <rect id="Rectangle" fill="#FFFFFF" x="16.3497653" y="9.80985915" width="2.33568075" height="6.5399061" rx="1.16784038"></rect>
                <path d="M12.8473846,6.07276995 L12.8473846,6.07276995 C13.157208,6.07276938 13.4543087,6.19185587 13.6731727,6.40376959 C13.8920367,6.61568331 14.0146886,6.9030196 14.0140823,7.20241776 L14.0140823,18.4900705 C14.0146886,18.7894687 13.8920367,19.0768049 13.6731727,19.2887187 C13.4543087,19.5006324 13.157208,19.6197189 12.8473846,19.6197183 L12.8473846,19.6197183 C12.2017743,19.6197183 11.6784038,19.1139578 11.6784038,18.4900705 L11.6784038,7.20241776 C11.6784038,6.57853051 12.2017743,6.07276995 12.8473846,6.07276995 Z" id="Path" fill="#FFFFFF"></path>
            </g>
        </g>
    </g>
</svg>

<svg width="30" height="30" xmlns="http://www.w3.org/2000/svg"><g transform="translate(2 2)" fill="none"><ellipse fill="#009DAB" cx="12.846" cy="13.08" rx="12.846" ry="13.08"/><path d="M3.964 11.678c.312 0 .61.123.831.342a1.17 1.17 0 0 1-.829 1.994 1.17 1.17 0 0 1-1.163-1.167 1.17 1.17 0 0 1 1.16-1.169Zm17.756 0a1.167 1.167 0 0 1 1.17 1.17c0 .644-.523 1.166-1.167 1.166a1.167 1.167 0 0 1-1.169-1.167 1.167 1.167 0 0 1 1.167-1.169ZM8.64 9.81c.646 0 1.17.488 1.17 1.09v4.36c0 .601-.524 1.09-1.17 1.09a1.21 1.21 0 0 1-.825-.32 1.053 1.053 0 0 1-.34-.77V10.9a1.047 1.047 0 0 1 .34-.77 1.21 1.21 0 0 1 .826-.32Z" fill="#FFF"/><rect fill="#FFF" x="16.35" y="9.81" width="2.336" height="6.54" rx="1.168"/><path d="M12.847 6.073c.31 0 .607.119.826.33.219.213.342.5.341.8V18.49c0 .3-.122.587-.34.799a1.188 1.188 0 0 1-.827.33c-.645 0-1.169-.505-1.169-1.129V7.202c0-.623.524-1.13 1.17-1.13Z" fill="#FFF"/></g></svg>
